public/icons/contact-family.svg

<svg width="33" height="32" viewBox="0 0 33 32" fill="none" xmlns="http://www.w3.org/2000/svg">
<g clip-path="url(#clip0_573_2490)">
<path d="M16.2306 18.0854C16.3185 18.1118 16.4092 18.125 16.5 18.125C16.5908 18.125 16.6815 18.1118 16.7694 18.0854C18.7841 17.4811 20.5127 16.2696 21.7682 14.5821C23.0238 12.8945 23.6875 10.8907 23.6875 8.78731V3.4375C23.6875 2.91975 23.2677 2.5 22.75 2.5C21.5653 2.5 20.5003 1.84175 19.9705 0.78225L19.8386 0.518313C19.6797 0.200625 19.3551 0 19 0H14C13.6449 0 13.3202 0.200625 13.1614 0.51825L13.0295 0.782125C12.4998 1.84175 11.4347 2.5 10.25 2.5C9.73225 2.5 9.3125 2.91975 9.3125 3.4375V8.78731C9.3125 10.8907 9.97619 12.8945 11.2317 14.5821C12.4873 16.2696 14.2159 17.4811 16.2306 18.0854ZM11.1875 4.28769C12.6063 4.01987 13.8398 3.15019 14.5703 1.875H18.4297C19.1602 3.15013 20.3937 4.01987 21.8125 4.28769V8.78738C21.8125 12.1784 19.6893 15.1239 16.5 16.2036C13.3107 15.1239 11.1875 12.1784 11.1875 8.78738V4.28769Z" fill="white"/>
<path d="M15.6162 11.768C15.8562 11.768 16.0961 11.6765 16.2791 11.4933L19.8146 7.95783C20.1807 7.5917 20.1807 6.99814 19.8146 6.63202C19.4485 6.26589 18.8549 6.26589 18.4888 6.63202L15.6162 9.50458L14.5113 8.39977C14.1452 8.03364 13.5516 8.03364 13.1855 8.39977C12.8194 8.76589 12.8194 9.35945 13.1855 9.72558L14.9532 11.4933C15.1364 11.6765 15.3763 11.768 15.6162 11.768Z" fill="white"/>
<path d="M28.8226 22.0443C29.5499 21.3098 30 20.3004 30 19.1875C30 16.9474 28.1776 15.125 25.9375 15.125C23.6974 15.125 21.875 16.9474 21.875 19.1875C21.875 20.2984 22.3236 21.3063 23.0487 22.0404C21.5507 22.773 20.3732 24.0596 19.7856 25.6426C19.5699 25.4722 19.3408 25.3181 19.1 25.1823C19.6211 24.5796 19.9375 23.795 19.9375 22.9375C19.9375 21.0421 18.3954 19.5 16.5 19.5C14.6046 19.5 13.0625 21.0421 13.0625 22.9375C13.0625 23.795 13.3789 24.5796 13.9 25.1823C13.6592 25.3181 13.4301 25.4722 13.2144 25.6426C12.6268 24.0596 11.4492 22.773 9.95131 22.0404C10.6764 21.3063 11.125 20.2984 11.125 19.1875C11.125 16.9474 9.30256 15.125 7.0625 15.125C4.82244 15.125 3 16.9474 3 19.1875C3 20.3004 3.45006 21.3098 4.17738 22.0443C2.00137 23.1139 0.5 25.3536 0.5 27.9375V31.0625C0.5 31.5802 0.91975 32 1.4375 32H31.5625C32.0802 32 32.5 31.5802 32.5 31.0625V27.9375C32.5 25.3536 30.9986 23.1139 28.8226 22.0443ZM23.75 19.1875C23.75 17.9813 24.7313 17 25.9375 17C27.1437 17 28.125 17.9813 28.125 19.1875C28.125 20.3937 27.1437 21.375 25.9375 21.375C24.7313 21.375 23.75 20.3937 23.75 19.1875ZM14.9375 22.9375C14.9375 22.0759 15.6384 21.375 16.5 21.375C17.3616 21.375 18.0625 22.0759 18.0625 22.9375C18.0625 23.7991 17.3616 24.5 16.5 24.5C15.6384 24.5 14.9375 23.7991 14.9375 22.9375ZM4.875 19.1875C4.875 17.9813 5.85631 17 7.0625 17C8.26869 17 9.25 17.9813 9.25 19.1875C9.25 20.3937 8.26869 21.375 7.0625 21.375C5.85631 21.375 4.875 20.3937 4.875 19.1875ZM2.375 27.9375C2.375 25.3528 4.47781 23.25 7.0625 23.25C9.49362 23.25 11.4984 25.0898 11.7277 27.481C11.3822 28.1854 11.1875 28.9765 11.1875 29.8125V30.125H2.375V27.9375ZM19.9375 30.125H13.0625V29.8125C13.0625 27.9171 14.6046 26.375 16.5 26.375C18.3954 26.375 19.9375 27.9171 19.9375 29.8125V30.125ZM30.625 30.125H21.8125V29.8125C21.8125 28.9765 21.6177 28.1854 21.2722 27.481C21.5016 25.0898 23.5064 23.25 25.9375 23.25C28.5222 23.25 30.625 25.3528 30.625 27.9375V30.125Z" fill="white"/>
</g>
<defs>
<clipPath id="clip0_573_2490">
<rect width="32" height="32" fill="white" transform="translate(0.5)"/>
</clipPath>
</defs>
</svg>

<svg xmlns="http://www.w3.org/2000/svg" fill="none" viewBox="0 0 33 32"><g fill="#fff" clip-path="url(#a)"><path d="M16.23 18.085a.94.94 0 0 0 .54 0 9.64 9.64 0 0 0 4.998-3.503 9.64 9.64 0 0 0 1.92-5.795v-5.35a.94.94 0 0 0-.938-.937A3.09 3.09 0 0 1 19.97.782l-.13-.264A.94.94 0 0 0 19 0h-5c-.355 0-.68.2-.839.518l-.131.264A3.09 3.09 0 0 1 10.25 2.5a.94.94 0 0 0-.937.938v5.35a9.64 9.64 0 0 0 1.919 5.794 9.64 9.64 0 0 0 4.999 3.503M11.189 4.288a4.95 4.95 0 0 0 3.382-2.413h3.86a4.95 4.95 0 0 0 3.383 2.413v4.5a7.78 7.78 0 0 1-5.313 7.416 7.78 7.78 0 0 1-5.312-7.417z"/><path d="M15.616 11.768c.24 0 .48-.091.663-.275l3.536-3.535a.938.938 0 0 0-1.326-1.326l-2.873 2.873L14.511 8.4a.937.937 0 1 0-1.325 1.326l1.767 1.767a.94.94 0 0 0 .663.275m13.207 10.276A4.05 4.05 0 0 0 30 19.187a4.067 4.067 0 0 0-4.062-4.062 4.067 4.067 0 0 0-4.063 4.063c0 1.11.449 2.118 1.174 2.852a6.56 6.56 0 0 0-3.263 3.603 5 5 0 0 0-.686-.46 3.42 3.42 0 0 0 .837-2.245A3.44 3.44 0 0 0 16.5 19.5a3.44 3.44 0 0 0-3.437 3.438c0 .857.316 1.642.837 2.244q-.361.204-.686.46a6.56 6.56 0 0 0-3.263-3.602 4.05 4.05 0 0 0 1.174-2.852 4.067 4.067 0 0 0-4.062-4.063A4.067 4.067 0 0 0 3 19.188a4.05 4.05 0 0 0 1.177 2.856A6.57 6.57 0 0 0 .5 27.937v3.125c0 .518.42.938.938.938h30.125c.517 0 .937-.42.937-.937v-3.125a6.57 6.57 0 0 0-3.677-5.894m-5.073-2.857A2.19 2.19 0 0 1 25.938 17a2.19 2.19 0 0 1 2.187 2.188 2.19 2.19 0 0 1-2.187 2.187 2.19 2.19 0 0 1-2.188-2.187m-8.812 3.75a1.563 1.563 0 0 1 3.125.001 1.563 1.563 0 0 1-3.125 0m-10.063-3.75A2.19 2.19 0 0 1 7.063 17a2.19 2.19 0 0 1 2.187 2.188 2.19 2.19 0 0 1-2.187 2.187 2.19 2.19 0 0 1-2.188-2.187m-2.5 8.75a4.693 4.693 0 0 1 4.688-4.687 4.677 4.677 0 0 1 4.665 4.231 5.3 5.3 0 0 0-.54 2.331v.313H2.374zm17.563 2.188h-6.875v-.312a3.44 3.44 0 0 1 3.437-3.438 3.44 3.44 0 0 1 3.438 3.438zm10.687 0h-8.812v-.312a5.3 5.3 0 0 0-.54-2.332 4.677 4.677 0 0 1 4.665-4.231 4.693 4.693 0 0 1 4.687 4.688z"/></g><defs><clipPath id="a"><path fill="#fff" d="M.5 0h32v32H.5z"/></clipPath></defs></svg>
